!! 00027] TT[TB
!! Eigene Aufnahme, Guangzhou, 5.5.87
!!!OTL: Kejia Shange,te chu ming
!!!ARE: Asia, China,ÿGuangdong, Meixian
!! Ethnic Group: Han
!! MM, Handschrift, Quelle S. Bandprotokoll)
!!!SCT: C0971
!!!YEM: Copyright 1995, estate of Helmut Schaffrath.
**kern
*ICvox
*Ivox
*M4/4
*k[f#]
*G:
{8bb
4.bb
16aa
16bb
4aa
8bb
=1
16aa
16bb
16aa
16gg
4ee
16ee
16gg
4aa
8bb}
=2
{8aa
16gg
[16ee
4ee]
16ee
16gg
4aa
8bb
=3
8ee
16aa
16gg
4ee
8ee
4gg
8ee}
=4
{8ee
4.ee
16ee
16gg
4aa
8bb
=5
16aa
16bb
16aa
16gg
4ee
8ee
4gg
16aa
16bb}
=6
{8aa
16gg
[16ee
4ee]
16ee
16gg
4aa
8bb
=7
8gg
16aa
16gg
4ee
8ee
4.ee}
==
!!!AGN: Shange, Kejia shange, Songkou ahange
!! Der Saenger Chen Qian studiert an der Guangzhouer
!!    Musikhochschule. Aufgenommen am 5.5.87
!!    Wenig Verzierungen. Schreibfehler: T.3,3 analog zu T.7 geaendert.
!!    Grundton unklar.
!!!ONB: ESAC (Essen Associative Code) Database: CHINA
!!!AMT: simple quadruple
!!!AIN: vox
!!!EED: Helmut Schaffrath
!!!EEV: 1.0
*-
